X:10603
T:Staten Island
B:Tuneworks Tunebook (https://www.tuneworks.co.uk/)
G:tuneworks
Z:Jon Warbrick, jon.warbrick@googlemail.com
R:Reel
M:4/4
L:1/8
K:D
|: AG | "D"FDFG A2 A2 | dfed dcBA | "G"B2 GB "D"A2 FA | "A"G2 E2 E2 AG | 
"D"FDFG A2 A2 | dfed dcBA | "G"d2 d2 "A"efge | "D"f2 d2 d2 :|
|: fg | "D"a2 fa "A"g2 eg | "D"f2 df "A"ecBA | "C"=c2 c2 efge | =c2 c2 efge | 
"D"a2 fa "A"g2 eg | "D"f2 df "A"ecBA | "G"d2 d2 "A"efge | "D"f2 d2 d2:|



